X:14602
T:Nancy Clough
R:Reel
C:Tom Clough (1881-1964)
O:England, Northumberland
Z:Paul Hardy's Annex Tunebook 2015 (see www.paulhardy.net). Creative Commons cc by-nc-sa licenced.
M:4/4
L:1/8
Q:1/4=160
K:D
|:(3ABc|"D"d2D2 F2A2|d2fe d2A2|d2ef "G"gfed|"A"c2e2 A2Bc|
"D"d2D2 F2A2|d2fe d2A2|"G"B2g2 "A"fedc|"D"d6:|
|:fg|"D"a3b a2gf|"G"g3a "A7"g2fe|"D"f2d2 "G"gfed|"A"c2e2 A2Bc|
"D"d2D2 F2A2|d2fe d2A2|"G"B2g2 "A7"fedc|"D"d6:|
|:(3ABc|"D"dcBA GFED|F2A2 d2A2|"D"dcde "G"gfed|"A"cdec A2Bc|
"D"dcBA GFED|F2A2 d2A2|"G"B2g2 "A7"fedc|"D"d6:|
|:fg|"D"aAaA a2gf|"G"gGgG "A7"g2fe|"D"fdfd "G"gfed|"A"cdec A2Bc|
"D"dcBA GFED|F2A2 d2A2|"G"B2g2 "A7"fedc|"D"d6:|

